X:6013
T:Fisher's Hornpipe
R:Hornpipe
C:Trad.
O:Ireland
Z:Paul Hardy's Session Tunebook 2015 (see www.paulhardy.net). Creative Commons cc by-nc-sa licenced.
M:4/4
L:1/8
Q:1/4=160
K:D
"A"Bc|"D"dAFD "G"GBAG|"D"FEDF "G"GBAG|"D"FDFD "G"GBAG|"D"FGAF "A"E2 Bc|
"D"dAFD "G"GBAG|"D"FEDF "G"GBAG|"D"FGAd "A"cdec|"D"dBAF d2:|
|:cd|"A"ecAc efge|"D"fdAd fgaf|"A"ecAc efgf|"E"edcB "A"A2A2|
"G"BGDG BcdB|"D"AFDF A2 _B2|"G"=BGBd "A"cdec|"D"dBAF D2:|

